packages/ui/app/images/icons/warning.svg

<?xml version="1.0" encoding="UTF-8"?>
<svg width="20px" height="17px" viewBox="0 0 20 17" version="1.1" xmlns="http://www.w3.org/2000/svg" xmlns:xlink="http://www.w3.org/1999/xlink">
    <!-- Generator: Sketch 52.5 (67469) - http://www.bohemiancoding.com/sketch -->
    <title>警告</title>
    <desc>Created with Sketch.</desc>
    <g id="0428-组件" stroke="none" stroke-width="1" fill="none" fill-rule="evenodd">
        <g id="集群事件" transform="translate(-1066.000000, -122.000000)" fill="#FF7A22" fill-rule="nonzero">
            <g id="警告" transform="translate(1066.000000, 122.000000)">
                <path d="M9.98681885,4.54772386 C9.48690704,4.54988176 9.08210236,4.95468644 9.07982459,5.45471813 L9.5333417,10.4513986 C9.51712652,10.6243398 9.60023571,10.7915494 9.74788503,10.8830441 C9.89553435,10.9745388 10.0822593,10.9745388 10.2299086,10.8830441 C10.3775579,10.7915494 10.4606671,10.6243398 10.4444519,10.4513986 L10.8979291,5.45471813 C10.8956913,4.95312796 10.488409,4.54772386 9.98681885,4.54772386 Z M9.98681885,11.81187 C9.48650743,11.8141477 9.08242205,12.2211902 9.08394057,12.7215816 C9.08541912,13.2219729 9.4918622,13.6266178 9.99225354,13.6258185 C10.4926449,13.6251392 10.8978891,13.2192556 10.8978891,12.7188243 C10.8956913,12.2172741 10.488409,11.81187 9.98681885,11.81187 Z M19.7473671,13.6258185 L11.5761068,0.915630829 C11.26376,0.333882931 10.6465636,-0.0183462498 9.98681885,0.00863656585 C9.33759072,0.0181711879 8.7388462,0.36075726 8.40164687,0.915630829 L0.230426576,13.6258185 C0.0666809459,13.9006013 -0.012848969,14.2173872 0.00168995122,14.5369288 C0.00612561951,15.5368723 0.815695024,16.3464816 1.81567848,16.3509173 L18.1580791,16.3509173 C19.1595811,16.3487594 19.971668,15.5385506 19.9761037,14.5369288 C20.000869,14.2164403 19.9205737,13.8966056 19.7473671,13.6258185 Z M18.1580791,15.443963 L1.81567848,15.443963 C1.31564679,15.4417252 0.91096199,15.0370004 0.908684215,14.5369687 C0.914459162,14.4147919 0.929487585,14.2932287 0.953640312,14.1733239 L0.998516488,14.1283678 L9.16973678,1.41402412 L9.2187689,1.36914794 C9.38624366,1.10252473 9.67246889,0.933514838 9.98681885,0.915630829 C10.2988907,0.903364999 10.5936051,1.05927004 10.7590647,1.32415188 C10.7590647,1.36910798 10.8039409,1.36910798 10.8039409,1.4630962 L18.9751612,14.1733239 L19.0241933,14.21828 C19.0521202,14.3375401 19.0671651,14.4594534 19.0690695,14.5819248 C19.0471309,15.0676905 18.6443642,15.4488382 18.1580791,15.443963 Z" id="形状"></path>
            </g>
        </g>
    </g>
</svg>

<svg width="20" height="17" xmlns="http://www.w3.org/2000/svg">
  <path d="M9.987 4.548a.911.911 0 00-.907.907l.453 4.996a.458.458 0 10.911 0l.454-4.996a.911.911 0 00-.911-.907zm0 7.264a.907.907 0 10.008 1.814.907.907 0 00-.008-1.814zm9.76 1.814L11.577.916a1.724 1.724 0 00-1.59-.907c-.65.01-1.248.352-1.585.907L.23 13.626a1.635 1.635 0 00-.228.91c.004 1 .814 1.81 1.814 1.815h16.342a1.822 1.822 0 001.818-1.814 1.48 1.48 0 00-.229-.911zm-1.589 1.818H1.816a.911.911 0 01-.907-.907 2.42 2.42 0 01.045-.364l.045-.045 8.17-12.714.05-.045a.972.972 0 01.768-.453.87.87 0 01.772.408c0 .045.045.045.045.14l8.171 12.71.05.044c.027.12.042.241.044.364a.903.903 0 01-.91.862z" fill="#FF7A22" fill-rule="nonzero"/>
</svg>
